build/assets/images/arrow.svg

<svg width="89" height="29" viewBox="0 0 89 29" fill="none" xmlns="http://www.w3.org/2000/svg">
<path d="M0.323647 16.6526C0.731597 17.373 5.57619 15.1327 13.4221 12.1063C17.9663 10.3454 22.6292 8.90798 27.3761 7.80469C33.0829 6.49003 38.9466 5.98698 44.7939 6.31041C50.5839 6.67809 56.2576 8.10304 61.5343 10.5147C65.9558 12.4875 70.1851 14.8655 74.168 17.6183C77.0222 19.6033 79.3247 21.4162 81.0945 22.821C80.1979 22.8264 79.3194 22.8395 78.4809 22.8668C76.3109 22.9372 74.3542 23.0784 72.7083 23.2784C69.4165 23.6785 67.3675 24.3142 67.3417 25.0904C67.316 25.8666 69.3184 26.6365 72.5765 27.2538C74.2056 27.5624 76.1486 27.8329 78.3091 28.0469C79.3893 28.1539 80.5239 28.2468 81.7008 28.3233C82.2894 28.3568 82.888 28.3908 83.4964 28.4254L84.415 28.4668C84.6069 28.4709 84.6181 28.4837 85.0467 28.4816C85.3477 28.4757 85.6469 28.4335 85.9378 28.356C86.4395 28.2229 86.9025 27.9726 87.2887 27.6257C87.6748 27.2788 87.9731 26.8452 88.1591 26.3606C88.2789 26.0503 88.3554 25.725 88.3862 25.3938C88.4051 25.1976 88.4111 25.0004 88.4041 24.8035L88.3882 24.495C88.3641 24.1123 88.3249 23.7405 88.2747 23.381C88.1759 22.7054 88.0418 22.0355 87.8728 21.374C87.5533 20.1273 87.2228 19.0882 86.8956 18.0415C86.2376 15.9725 85.5695 14.128 84.9292 12.5985C83.6489 9.53957 82.4799 7.74071 81.726 7.92712C80.972 8.11353 80.7758 10.2497 81.068 13.553C81.2141 15.2046 81.4823 17.1479 81.864 19.2852C81.906 19.5043 81.95 19.7345 81.9928 19.958C80.3396 18.0026 78.543 16.1732 76.6178 14.4849C72.7108 11.0697 68.3881 8.16186 63.7522 5.8303C57.9751 2.85396 51.6443 1.10625 45.1585 0.697253C38.7399 0.329816 32.305 1.03266 26.1171 2.777C21.1565 4.17363 16.3553 6.08445 11.7916 8.47837C4.07781 12.5681 -0.0395791 16.029 0.323647 16.6526Z" fill="#468E0D"/>
</svg>

<svg width="89" height="29" fill="none" xmlns="http://www.w3.org/2000/svg"><path d="M.324 16.653c.408.72 5.252-1.52 13.098-4.547a103.411 103.411 0 0 1 13.954-4.301A62.27 62.27 0 0 1 44.794 6.31a47.516 47.516 0 0 1 16.74 4.205 78.42 78.42 0 0 1 12.634 7.103c2.854 1.985 5.157 3.798 6.926 5.203a94.77 94.77 0 0 0-2.613.046c-2.17.07-4.127.211-5.773.411-3.291.4-5.34 1.036-5.366 1.812-.026.777 1.976 1.547 5.234 2.164 1.63.308 3.573.579 5.733.793 1.08.107 2.215.2 3.392.276l1.795.102.919.042c.192.004.203.017.632.015.3-.006.6-.049.89-.126a3.28 3.28 0 0 0 2.222-1.995c.12-.31.196-.636.227-.967.02-.196.025-.394.018-.59l-.016-.309a14.762 14.762 0 0 0-.113-1.114 19.517 19.517 0 0 0-.402-2.007c-.32-1.247-.65-2.286-.977-3.332-.658-2.07-1.326-3.914-1.967-5.444-1.28-3.058-2.45-4.857-3.203-4.67-.754.186-.95 2.322-.658 5.625.146 1.652.414 3.595.796 5.732l.129.673a51.526 51.526 0 0 0-5.375-5.473A61.61 61.61 0 0 0 63.752 5.83 47.066 47.066 0 0 0 45.158.697a57.97 57.97 0 0 0-19.04 2.08 74.027 74.027 0 0 0-14.326 5.701C4.078 12.568-.04 16.03.324 16.653Z" fill="#468E0D"/></svg>
